optimized/line/refund-2.svg

<svg xmlns="http://www.w3.org/2000/svg" fill="currentColor" viewBox="0 0 24 24" aria-hidden="true">
  <path d="M5.676 4.257c3.928-3.219 9.733-2.995 13.4.672 3.905 3.905 3.905 10.237 0 14.142-3.905 3.905-10.237 3.905-14.142 0a9.993 9.993 0 01-2.678-9.304l.077-.313 1.934.51a8 8 0 103.053-4.45L7.1 5.68l1.017 1.017-4.596 1.06 1.06-4.596 1.096 1.096zM13.005 6v2h2.5v2h-5.5a.5.5 0 00-.09.992l.09.008h4a2.5 2.5 0 010 5h-1v2h-2v-2h-2.5v-2h5.5a.5.5 0 00.09-.992l-.09-.008h-4a2.5 2.5 0 110-5h1V6h2z"/>
</svg>

<svg xmlns="http://www.w3.org/2000/svg" viewBox="0 0 24 24" aria-hidden="true">
  <path fill="none" d="M0 0h24v24H0z"/>
  <path d="M5.671 4.257c3.928-3.219 9.733-2.995 13.4.672 3.905 3.905 3.905 10.237 0 14.142-3.905 3.905-10.237 3.905-14.142 0A9.993 9.993 0 012.25 9.767l.077-.313 1.934.51a8 8 0 103.053-4.45l-.221.166L8.11 6.697l-4.596 1.06 1.06-4.596L5.67 4.257zM13 6v2h2.5v2H10a.5.5 0 00-.09.992L10 11h4a2.5 2.5 0 110 5h-1v2h-2v-2H8.5v-2H14a.5.5 0 00.09-.992L14 13h-4a2.5 2.5 0 110-5h1V6h2z"/>
</svg>
